svg/kana.svg

<svg width="284" height="284" viewBox="0 0 284 284" fill="none" xmlns="http://www.w3.org/2000/svg">
<path fill-rule="evenodd" clip-rule="evenodd" d="M117.676 92.0011L94.5709 91.7211C95.1429 76.6841 95.3429 75.1411 95.2599 71.8711C95.1909 61.6361 89.8739 59.4231 85.4249 59.3701L85.2679 59.3691C81.0609 59.3691 76.0199 61.4671 75.8989 71.4621C75.8129 78.6631 75.5589 81.1111 75.2019 91.4861L66.1629 91.3771L65.8719 91.3761C57.0239 91.3761 55.1059 96.4041 55.0549 100.623C54.9999 105.177 56.8419 110.629 65.9289 110.74L74.2299 110.84L74.1729 111.596C72.6699 131.521 71.6779 144.684 69.5089 154.536C65.4279 172.962 59.7559 183.927 50.6749 198.961C47.9469 203.506 47.5679 205.042 47.5569 205.944C47.5009 210.55 49.3949 216.184 58.7329 216.872L58.8669 216.881L59.0019 216.867C61.8519 216.563 64.8079 213.736 68.3069 207.966C77.1479 193.317 82.8009 182.39 87.0809 163.659C90.2629 149.852 91.7869 132.394 93.3959 111.072L106.937 111.236C110.595 111.28 112.836 112.318 113.784 114.41C115.135 118.711 115.682 126.887 115.409 138.711C114.842 161.256 115.018 170.177 112.293 184.439C108.85 202.221 105.343 204.195 104.155 204.314C102.464 203.898 100.476 202.587 98.2299 200.407C96.0269 198.315 94.3019 197.333 92.8019 197.315L92.5759 197.314C85.9269 197.314 82.3689 200.932 82.2859 207.779C82.2609 209.811 83.4249 212.078 85.8419 214.709L85.9539 214.82C91.8839 220.048 97.9649 223.096 104.026 223.877L104.177 223.897L104.329 223.886C110.978 223.388 116.425 220.104 120.517 214.126C123.097 210.357 125.478 204.626 127.795 196.613C132.378 180.975 133.453 168.652 133.959 139.371C134.31 121.475 133.572 109.959 131.704 104.176C130.028 96.3021 125.178 92.0921 117.676 92.0011Z" fill="#1A1919"/>
<path fill-rule="evenodd" clip-rule="evenodd" d="M236.185 119.986C235.768 115.682 233.424 110.545 224.624 110.514L208.142 110.455L208.23 71.7309C208.262 62.3089 203.058 60.3129 198.636 60.2979C194.197 60.2979 188.898 62.2689 188.865 71.6649L188.778 110.387L158.061 110.279C148.552 110.279 146.538 115.466 146.523 119.818C146.511 123.038 147.536 125.523 149.569 127.203C151.514 128.809 154.379 129.63 158.088 129.644L188.71 129.752L188.706 131.08C188.612 157.765 186.808 170.628 180.888 184.429C175.831 195.946 170.088 202.411 161.074 206.741C157.187 208.566 156.362 211.442 156.354 213.535C156.331 220.136 160.016 223.882 167.011 224.363L167.22 224.378L167.424 224.335C169.477 223.901 171.55 223.024 173.604 221.715C186.747 213.064 194.583 203.664 199.808 190.27C205.944 174.163 207.973 158.861 208.071 131.149L208.076 129.82L224.633 129.879C233.376 129.879 235.741 124.66 236.184 120.282L236.2 120.134L236.185 119.986Z" fill="#1A1919"/>
</svg>

<svg width="284" height="284" viewBox="0 0 284 284" xmlns="http://www.w3.org/2000/svg">
    <g fill="#1A1918" fill-rule="evenodd">
        <path d="M117.676 92.001l-23.105-.28c.572-15.037.772-16.58.689-19.85-.069-10.235-5.386-12.448-9.835-12.5l-.157-.002c-4.207 0-9.248 2.098-9.369 12.093-.086 7.201-.34 9.65-.697 20.024l-9.039-.109h-.291c-8.848 0-10.766 5.027-10.817 9.246-.055 4.554 1.787 10.006 10.874 10.117l8.301.1-.057.756c-1.503 19.925-2.495 33.088-4.664 42.94-4.081 18.426-9.753 29.391-18.834 44.425-2.728 4.545-3.107 6.081-3.118 6.983-.056 4.606 1.838 10.24 11.176 10.928l.134.01.135-.015c2.85-.304 5.806-3.13 9.305-8.9 8.841-14.65 14.494-25.577 18.774-44.308 3.182-13.807 4.706-31.265 6.315-52.587l13.541.164c3.658.044 5.899 1.082 6.847 3.174 1.351 4.301 1.898 12.477 1.625 24.301-.567 22.545-.391 31.466-3.116 45.728-3.443 17.782-6.95 19.756-8.138 19.875-1.691-.416-3.679-1.727-5.925-3.907-2.203-2.092-3.928-3.074-5.428-3.092h-.226c-6.649 0-10.207 3.617-10.29 10.464-.025 2.032 1.139 4.3 3.556 6.93l.112.111c5.93 5.228 12.011 8.276 18.072 9.057l.151.02.152-.01c6.649-.499 12.096-3.783 16.188-9.76 2.58-3.77 4.961-9.5 7.278-17.514 4.583-15.638 5.658-27.96 6.164-57.242.351-17.896-.387-29.412-2.255-35.195-1.676-7.874-6.526-12.084-14.028-12.175M236.185 119.986c-.417-4.304-2.761-9.441-11.561-9.472l-16.482-.06.088-38.723c.032-9.422-5.172-11.418-9.594-11.433-4.44 0-9.738 1.97-9.771 11.367l-.087 38.722-30.717-.108c-9.51 0-11.523 5.187-11.538 9.539-.012 3.22 1.013 5.705 3.046 7.385 1.945 1.606 4.81 2.427 8.519 2.44l30.622.109-.004 1.328c-.094 26.685-1.898 39.548-7.818 53.349-5.057 11.517-10.8 17.982-19.814 22.312-3.887 1.825-4.712 4.7-4.72 6.794-.023 6.6 3.662 10.347 10.657 10.828l.209.015.204-.043c2.053-.434 4.126-1.311 6.18-2.62 13.143-8.651 20.979-18.051 26.204-31.445 6.136-16.107 8.165-31.41 8.263-59.121l.005-1.33 16.557.06c8.743 0 11.108-5.22 11.55-9.597l.017-.148-.015-.148z"/>
    </g>
</svg>
